!!!COM: Joplin, Scott
!!!CDT: 1868/11/24/-1917/04/01/
!!!OTL: Scott Joplin's New Rag
!!!ODT: 1912///
!!!OMD: Allegro Moderato
!!!PPR: Jos. W. Stern & Co.
!!!PPP: New York
!!!PDT: 1912///
**kern	**kern	**dynam
*staff2	*staff1	*staff1/2
*Ipiano	*Ipiano	*Ipiano
*>[I,A,A1,A,A2,B,B1,B,B2,C,D,D1,D,D2,E]	*>[I,A,A1,A,A2,B,B1,B,B2,C,D,D1,D,D2,E]	*>[I,A,A1,A,A2,B,B1,B,B2,C,D,D1,D,D2,E]
*>norep[I,A,A2,B,B2,C,D,D2,E]	*>norep[I,A,A2,B,B2,C,D,D2,E]	*>norep[I,A,A2,B,B2,C,D,D2,E]
*>I	*>I	*>I
*clefF4	*clefG2	*clefG2
*k[]	*k[]	*k[]
*M2/4	*M2/4	*M2/4
*MM100	*MM100	*MM100
=1-	=1-	=1-
16ELL	16cLL	f
16F	16d	.
16G	16e	<
[16AJJ	[16fJJ	.
16ALL]	16fLL]	.
16B	16g	.
16c	16a	.
16dJJ	16bJJ	.
=2	=2	=2
16eLL	16ccLL	.
16d	16b	.
16c	16a	>
[16BJJ	[16gJJ	.
16BLL]	16gLL]	.
16AJ	16fJ	.
8GJ	8eJ	.
=3	=3	=3
16eLL	(16gLL	.
16f	16a	.
16e	16g	.
16d#JJ	16f#JJ)	.
16eLL	(16gLL	.
16f	16a	.
16e	16g	.
16d#JJ	16f#JJ	.
=4	=4	=4
&(8e&)	8g)	.
8eL E	8ggL g	.
8d# D#	8ff# a	.
8dnJ Dn	8ffnJ b	.
=5!|:	=5!|:	=5!|:
*>A	*>A	*>A
*^	*	*
16GLL	4C	8.eeL cc	mf
16AJ	.	.	.
8GJ	.	.	.
.	.	16eeJk	.
4r	8GL GG	16dd#LL cc	<
.	.	16ee	.
.	8cJ G E	16gg	.
.	.	[16cccJJ [ee	.
*v	*v	*	*
=6	=6	=6
8CL	16ccc]LL ee]	>
.	16bbJ	.
8eJ c G	8aaJ ee	.
8CL	16aaLK dd#	.
.	8.ggJ ee	.
8eJ c G	.	.
=7	=7	=7
*^	*	*
16GLL	4C	8.eeL cc	.
16AJ	.	.	.
8GJ	.	.	.
.	.	16eeJk cc	.
4r	8c#L C#	(16dd#LL a#	.
.	.	16ee	.
.	8eJ c# G	16gg a#	.
.	.	16eeJJ	.
*v	*v	*	*
=8	=8	=8
8dL D	8ffL b	.
8fJ B G	16ffL	.
.	16eeJJ	.
8GL GG	16ddLL)	.
.	16ddd	.
8fJ B G	(16dd	.
.	16dd#JJ)	.
=9	=9	=9
*^	*	*
16G^LL	4C	8.eeL cc	.
16AJ	.	.	.
8GJ	.	.	.
.	.	16eeJk	.
4r	8GGL	16dd#LL cc	.
.	.	16ee	.
.	8eJ c G	16gg	.
.	.	[16cccJJ [ee	.
*v	*v	*	*
=10	=10	=10
8CL CC	16ccc]LL ee]	.
.	16bbJ	.
8eJ c G	8aaJ ee	.
8GGL	16aaLK dd#	.
.	8.ggJ ee	.
8cJ G E	.	.
=11	=11	=11
8F#L FF#	(16cccLL aa dd#	.
.	16ff#	.
8f#J B A	16aa	<
.	[16bb^JJ) [aa [dd#	.
8BBL BBB	16bb]LL aa] dd#]	.
.	16cccJ	.
8f#J d# A	8bbJ aa dd#	.
=12	=12	=12
8E EE	8eee bb gg ee	f
8e^L E	8gg^L g	.
8d#^ D#	8ff#^ a	.
8dn^J Dn	8ff#^J b	.
=13	=13	=13
*^	*	*
16GLL	4C	8.eeL cc	mf
16AJ	.	.	.
8GJ	.	.	.
.	.	16eeJk	.
4r	8GL GG	16dd#LL cc	.
.	.	16ee	.
.	8cJ G E	16gg	.
.	.	[16cccJJ [ee	.
*v	*v	*	*
=14	=14	=14
8CL	16ccc]LL ee]	.
.	16bbJ	.
8cJ G E	8aaJ ee	.
8CL	16aaLK dd#	.
.	8.ggJ ee	.
8cJ G E	.	.
=15	=15	=15
8BL BB	8dddL gg# ee	f
8EJ EE	16eeeL ee	.
.	[16dddJJ [gg# [ee	.
8F#L FF#	16ddd]LL gg#] ee]	.
.	16eeeJ	.
8G#J GG#	8dddJ gg# ee	.
=16	=16	=16
8A AA	(16cccLL aa	.
.	16eee	.
8r	16ccc	.
.	16aaJJ	.
4r	16eeLL	.
.	16cc	.
.	16a	.
.	16eJJ)	.
=17	=17	=17
8DL DD	8fL	.
8dJ A F	16gL	.
.	[16aJJ	.
8FL FF	16aLL]	<
.	16bJ	.
8dJ A F	8ccJ	.
=18	=18	=18
8F#L FF#	4aa^ dd# a	.
8d#J A F#	.	.
8GL GG	4gg ee g	.
8eJ c G	.	.
=19	=19	=19
8GL GG	16aaLK ff b	.
.	8gg^ ff b	.
8A^ AA	.	.
.	[16gg^Jk [ff [b	.
8B^ BB	16gg]LL ff] b]	.
.	16aaJ	.
8G^J GG	8ggJ	.
=20	=20	=20
*>A1	*>A1	*>A1
8cL C	8cccL ee cc	.
8e^ E	8gg^ g	.
8d#^ D#	8ff#^ a	.
8dn^J Dn	8ffnJ b	.
=21:|!	=21:|!	=21:|!
*>A2	*>A2	*>A2
8C CC	8ccc ee cc	.
16eLL	16eeLL	.
[16fJJ	[16ffJJ	.
16fLL]	16ffLL]	.
16d#J	16dd#J	.
8eJ	8eeJ	.
=22	=22	=22
*>B	*>B	*>B
8eL E	(16eeLL	mp
.	16ff#	.
8d D	16gg#	.
.	16aaJJ	.
8c C	16bbLL	<
.	16ccc	.
8BJ BB	16ddd	.
.	16eeeJJ)	.
=23	=23	=23
8AL AA	16dddLL aa ee	.
.	16ccc	.
8cJ A E	16bb	.
.	[16ccc^JJ [aa [ee	.
8EL EE	16ccc]LL aa] ee]	.
.	16bbJ	.
8cJ A E	8aaJ	.
=24	=24	=24
8BBL	16cccLL gg# dd	.
.	16bb	.
8dJ G# E	16aa#	.
.	[16bb^JJ [gg# [dd	>
8EEL	16bb]LL gg#] dd]	.
.	16aanJ	.
8dJ G# E	8gg#J	.
=25	=25	=25
8AAL	16bbLL ee cc	.
.	16aa	.
8cJ A E	16gg#	.
.	[16aa^JJ [ee [cc	.
8CL	16aa]LL ee] cc]	.
.	16dd#J	.
8cJ A E	8eeJ	.
=26	=26	=26
8eL E	(16eeLL	.
.	16ff#	.
8d D	16gg#	.
.	16aaJJ	.
8c C	16bbLL	<
.	16ccc	.
8BJ BB	16ddd	.
.	16eeeJJ)	.
=27	=27	=27
8AL AA	16dddLL aa ee	.
.	16ccc	.
8cJ A E	16bb	.
.	[16cccJJ [aa [ee	.
8EL EE	16ccc]LL aa] ee]	<
.	16bbJ	.
8cJ A E	8aaJ	.
=28	=28	=28
*	*^	*
8F FF	16aaLL	8dd#L	f
.	16ccc	.	.
4a^ d# B	16bb	[8dd#J	.
.	[16aaJJ	.	.
.	16aaLL]	8dd#L]	.
.	16bbJ	.	.
8F^ FF	8aaJ	8dd#J	.
*	*v	*v	*
=29	=29	=29
8EL EE	8gg#L ee	.
16eL	16eeL	.
[16fJJ	[16ffJJ	.
16fLL]	16ffLL]	.
16d#J	16dd#J	.
8eJ	8eeJ	.
=30	=30	=30
8eL E	(16eeLL	.
.	16ff#	.
8d D	16gg#	.
.	16aaJJ	.
8c C	16bbLL	<
.	16ccc	.
8BJ BB	16ddd	.
.	16eeeJJ)	.
=31	=31	=31
8AL AA	16dddLL aa ee	.
.	16ccc	.
8cJ A E	16bb	.
.	[16cccJJ [aa [ee	.
8EL EE	16ccc]LL aa] ee]	.
.	16bbJ	.
8cJ A E	8aaJ	.
=32	=32	=32
8BBL	16cccLL gg# dd	.
.	16bb	.
8dJ G# E	16aa#	.
.	[16bbJJ [gg# [dd	.
8EEL	16bb]LL gg#] dd]	.
.	16aanJ	.
8dJ G# E	8gg#J	.
=33	=33	=33
8AL AA	16bbLL	.
.	16aa	.
8eJ c A	16gg#	.
.	[16aaJJ	.
8cL C	16aaLL]	.
.	16aaJ	.
8eJ E	8aaJ ee cc	.
=34	=34	=34
8fL F	16aaLL dd a	.
.	16ff	.
8fJ d A	16dd	.
.	[16aJJ	.
8eL E	16aLL]	.
.	16ddJ	.
8dJ D	8ffJ a	.
=35	=35	=35
8eL E	16eeLL	.
.	16cc	.
8cJ A E	16a	.
.	[16eJJ	.
8dL D	16eLL]	.
.	16fJ	.
8cJ C	8eJ	.
=36	=36	=36
8BL BB	16ddLL	.
.	16cc	.
8eJ d G#	16b	.
.	[16eeJJ	.
8EL EE	16eeLL]	.
.	16dd	.
8eJ d G#	16cc	.
.	16bJJ	.
=37	=37	=37
*>B1	*>B1	*>B1
8e c A	8a	.
16eLL	16eeLL	.
[16fJJ	[16ffJJ	.
16fLL]	16ffLL]	.
16d#J	16dd#J	.
8eJ	8eeJ	.
=38:|!	=38:|!	=38:|!
*>B2	*>B2	*>B2
*^	*^	*
4r	4e c A	4r	8aL	.
.	.	.	8ccJ	.
8dL	(4f G	8bL	4b	.
8BJ)	.	16ddL	.	.
.	.	16dd#JJ	.	.
*	*	*v	*v	*
*v	*v	*	*
=39	=39	=39
*>C	*>C	*>C
*^	*	*
16GLL	4C	8.eeL cc	mf
16AJ	.	.	.
8GJ	.	.	.
.	.	16eeJk	.
4r	8GL GG	16dd#LL cc	<
.	.	16ee	.
.	8cJ G E	16gg	.
.	.	[16cccJJ [ee	.
*v	*v	*	*
=40	=40	=40
8CL	16ccc]LL ee]	>
.	16bbJ	.
8cJ G E	8aaJ ee	.
8GGL	16aaLK dd#	.
.	8.ggJ ee	.
8cJ G E	.	.
=41	=41	=41
*^	*	*
16GLL	4C	8.eeL cc	.
16AJ	.	.	.
8GJ	.	.	.
.	.	16eeJk cc	.
4r	8c#L C#	16dd#LL a#	.
.	.	16ee	.
.	8eJ c# G	16gg a#	.
.	.	16eeJJ	.
*v	*v	*	*
=42	=42	=42
8dL D	8ffL b	.
8fJ B G	(16ffL	<
.	16eeJJ	.
8GL GG	16ddLL)	.
.	16ddd'	.
8fJ B G	(16dd	.
.	16dd#JJ)	.
=43	=43	=43
*^	*	*
16GLL	4C	8.eeL cc	.
16AJ	.	.	.
8GJ	.	.	.
.	.	16eeJk	.
4r	8GL GG	16dd#LL cc	.
.	.	16ee	.
.	8cJ G E	16gg	.
.	.	[16cccJJ [ee	.
*v	*v	*	*
=44	=44	=44
8CL	16ccc]LL ee]	.
.	16bbJ	.
8cJ G E	8aaJ ee	.
8GGL	16aaLK dd#	.
.	8.ggJ ee	.
8cJ G E	.	.
=45	=45	=45
8F#L FF#	16cccLL aa dd#	.
.	16ff#	.
8f#J B A	16aa	.
.	[16bb^JJ [aa [dd#	.
8BBL	16bb]LL aa] dd#]	.
.	16cccJ	.
8f#J d# A	8bbJ aa dd#	.
=46	=46	=46
8E EE	8eee bb gg ee	.
8e^L E	8gg'^L g	.
8d#^ D#	8ff# a	.
8dn^J Dn	8ffn^J b	.
=47	=47	=47
*^	*	*
16GLL	4C	8.eeL cc	.
16AJ	.	.	.
8GJ	.	.	.
.	.	16eeJk	.
4r	8GL GG	16dd#LL cc	<
.	.	16ee	.
.	8cJ G E	16gg	.
.	.	[16cccJJ [ee	.
*v	*v	*	*
=48	=48	=48
8CL	16ccc]LL ee]	>
.	16bbJ	.
8cJ G E	8aaJ ee	.
8GGL	16aaLK dd#	.
.	8.ggJ ee	.
8cJ G E	.	.
=49	=49	=49
8BL BB	8dddL gg# ee	.
8EJ EE	16eeeL gg# ee	.
.	[16dddJJ [gg# [ee	.
8F#L FF#	16ddd]LL gg#] ee]	.
.	16eeeJ	.
8G#J GG#	8dddJ gg# ee	.
=50	=50	=50
8AL AA	(16cccLL aa	.
.	16eee	.
8eJ c A	16ccc	.
.	16aaJJ	.
4r	16eeLL	.
.	16cc	.
.	16a	.
.	16eJJ)	.
=51	=51	=51
8DL DD	8fL	.
8dJ A F	16gL	.
.	[16aJJ	<
8FL FF	16aLL]	.
.	16bJ	.
8dJ A F	8ccJ	.
=52	=52	=52
8F#L FF#	4aa^ dd# a	.
8d#J A F#	.	.
8GL GG	4gg^ ee g	.
8eJ c G	.	.
=53	=53	=53
8G^L GG	16aaLK ff b	.
.	8gg^ ff b	.
8A^J AA	.	.
.	[16gg^Jk [ff [b	.
8B^L BB	16gg]LL ff] b]	.
.	16aaJ	.
8G^J GG	8ggJ ff b	.
=54	=54	=54
8c^ C	8ccc ee cc	.
8r	16ggLL g	.
.	16ggJJ g	.
8r	8ggL g	.
8A# AA#	8ggJ ee cc# g	.
=55!|:	=55!|:	=55!|:
*>D	*>D	*>D
8BL BB	[4gg [ff [dd [g	mf
8fJ B G	.	.
8G^L GG	16gg]LL ff] dd] g]	.
.	16ggJ	.
8F^J FF	8ddJ b g	.
=56	=56	=56
8E^L EE	16ccLK g	.
.	8gg^	.
8eJ c G	.	.
.	[16ggJk [ee [g	.
8eL E	8gg]L ee] g]	.
8dJ D	8gg#J ee dd g#	.
=57	=57	=57
8c#L C#	[4aa [ee [cc# [a	<
8c#J A G E	.	.
8A^L AA	16aa]LL ee] cc#] a]	.
.	16aaJ	.
8G^J GG	8eeJ cc# a	.
=58	=58	=58
8FL FF	16ddLK a	.
.	8aa^	.
8dJ A F	.	.
.	[16aaJk [ff [a	.
8dL D	8aa]L ff] a]	.
8c#J C#	8aaJ ee b-	ff
=59	=59	=59
8dL D	8.aaL ff bn	.
8fJ B G	.	.
.	16a#Jk	.
8GL GG	16bLK	.
.	8gg^ ff b	.
8fJ B G	.	.
.	16bJk	.
=60	=60	=60
8dL D	16aaLL ff	.
.	16a#	.
8fJ B G	16b	.
.	[16ggJJ [ee	.
8G^L GG	16gg]LL ee]	.
.	16bJ	.
8B^J BB	8ggJ ff dd	.
=61	=61	=61
8cL C	8.aaL ee cc	.
8eJ c G	.	.
.	16bJk	.
8EL EE	16ccLK	.
.	8gg^ ee	.
8eJ c G	.	.
.	16ccJk	.
=62	=62	=62
8GL GG	16aaLL ee cc	.
.	16b	.
8cJ G E	16cc	.
.	[16ggJJ [ee [cc	.
8cL C	8gg]L ee] cc]	.
8A#J AA#	8ggJ ee cc# g	.
=63	=63	=63
8BL BB	[4gg [ff [dd [g	mf
8BJ G F D	.	.
8G^L GG	16gg]LL ff] dd] g]	.
.	16ggJ	.
8F^J FF	8ddJ b g	.
=64	=64	=64
8EL EE	16ccLK g	.
.	8gg^	.
8eJ c G	.	.
.	[16ggJk [ee [g	.
8e^L E	8gg]L ee] g]	.
8d^J D	8gg#J ee dd g#	.
=65	=65	=65
8c#^L C#	[4aa [ee [cc# [a	.
8eJ c# G	.	.
8A^L AA	16aa]LL ee] cc#] a]	.
.	16aaJ	.
8G^J GG	8eeJ cc# a	.
=66	=66	=66
8FL FF	16ddLK a	.
.	8aa	.
8dJ A F	.	.
.	[16aaJk [ff [a	.
8DL DD	16aa]LL ff] a]	.
.	16ffJ	.
8FJ FF	8aaJ dd a	.
=67	=67	=67
8F#^L FF#	8.aaL dd# cc	ff
8G^J GG	.	.
.	16ff#Jk	.
8A^L AA	(16dd#LL	.
.	16ff#J	.
8F#^J FF#	8aaJ) dd# cc	.
=68	=68	=68
8GL GG	8ggL ee cc	.
8eJ c G	16aaL ee cc	.
.	[16ggJJ [ee [cc	.
8EL EE	16gg]LL ee] cc]	.
.	16gJ	.
8C#J CC#	8eeJ b- g	.
=69	=69	=69
8DL DD	8ffL a f	.
8dJ A F	(16ddL	.
.	16ccJJ	.
8GL GG	16bLL	.
.	16dd	.
8BJ G F	16a	.
.	16bJJ)	.
=70	=70	=70
*>D1	*>D1	*>D1
8c G E C	8ccL e	.
8r	16ggL g	.
.	16ggJJ g	.
8r	8ggL g	.
8A# AA#	8ggJ ee cc# g	.
=71:|!	=71:|!	=71:|!
*>D2	*>D2	*>D2
8c G E C	8ccL e	ff
8r	(16eeL	.
.	16ffJJ	.
4r	16ff#LL	.
.	16gg	.
.	16aa	.
.	16bbJJ)	.
=72	=72	=72
*>E	*>E	*>E
8A AA	8ccc ff# ee cc	.
4A AA	4ccc ff# ee cc	.
8c C	8aa ff# ee a	.
=73	=73	=73
*	*^	*
8B^L BB	4r	8bb^L ff# dd# b	.
16F#L	.	16f#L	.
[16BJJ	.	[16bJJ	.
16B]	(16bLL]	16r	.
8.r	16ff#J	16f#LK	.
.	8bbJ)	8bJ	.
*	*v	*v	*
=74	=74	=74
8c^ C	8aa ff# ee a	.
4A^ AA	4ccc^ ff# ee cc	.
8A^ AA	8ccc^ ff# ee cc	.
=75	=75	=75
8B^L BB	8bb^L ff# dd# b	.
(16BL	(16bL	.
16A#JJ	16a#JJ	.
8B)	8b)	.
=	=	=
*k[f#]	*k[f#]	*k[f#]
8r	16eeLL	mf
.	16ff#JJ	.
=76	=76	=76
8BL G E	16ggLL	.
.	16ff#	.
8BJ G E	16ffn	.
.	[16eeJJ	.
4c#^ B- G E	16eeLL]	.
.	16cc#	.
.	16b	.
.	16b-JJ	.
=77	=77	=77
4cn A G E	(16aLL	.
.	16bn	.
.	16cc	.
.	16aJJ	.
4c A F# D#	16ccLL	.
.	16dd#J	.
.	8ff#J)	.
=78	=78	=78
8BL G E	16ggLL	.
.	16ff#	.
8BJ G E	16ffn	.
.	[16eeJJ	.
4c# B- G E	16eeLL]	.
.	16cc#	.
.	16b	.
.	16b-JJ	.
=79	=79	=79
4cn A E	16aLL	.
.	16b	.
.	16cc	.
.	16aJJ	.
8cL A D#	8f#L	.
16f#L	(16aL	.
16gJJ	16bJJ	.
=80	=80	=80
&(8aL&)	8ccL)	.
16d#L	(16f#L	.
16eJJ	16gJJ	.
&(8f#L&)	8aL)	.
16cL	(16d#L	.
16c#JJ	16eJJ	.
=81	=81	=81
&(8d#L&)	8f#L)	.
16AL	(16cL	.
16BJJ	16dnJJ	.
&(8cL&)	8e-L)	.
16F#L	(16AL	.
16GJJ	16BJJ	.
=82	=82	=82
*	*^	*
&(8AL&)	4r	8cL)	.
(16F#L	.	(16AL	.
16GJJ	.	16BJJ	.
8A)	4c)	8cL	.
8A^ AA	.	8ccc^J ff# ee cc	.
*	*v	*v	*
=83	=83	=83
8B^ BB	8bb^L ff# dd# b	.
16BLL	16bL	.
16A#JJ	16a#JJ	.
8B	8bL	.
8r	(16eeL	.
.	16ff#JJ)	.
=84	=84	=84
8BL G E	16ggLL	.
.	16ff#	.
8BJ G E	16ffn	.
.	[16eeJJ	.
4c#^ B- G E	16eeLL]	.
.	16cc#	.
.	16b	.
.	16b-JJ	.
=85	=85	=85
4cn An G E	16aLL	.
.	16bn	.
.	16cc	.
.	16aJJ	.
4c^ A F# D#	16ccLL	.
.	16dd#J	.
.	8ff#J	.
=86	=86	=86
8BL G E	16ggLL	.
.	16ff#	.
8BJ G E	16ffn	.
.	[16eeJJ	.
4c#^ B- G E	16eeLL]	.
.	16cc#	.
.	16b	.
.	16b-JJ	.
=87	=87	=87
4cn A E	16aLL	.
.	16bn	.
.	16cc	.
.	16aJJ	.
8c^ A D#	8f#	.
8r	8r	.
=88	=88	=88
16f#LL	16aaLL	.
16fn	16aa-	.
16e	16gg	.
[16d#JJ	[16ff#JJ	.
16d#LL]	16ff#LL]	.
16dn	16ffn	.
16c#	16ee	.
16cnJJ	16ee-JJ	.
=89	=89	=89
16dLL	16ddLL	.
16c#	16cc#	.
16cn	16ccn	.
[16BJJ	[16bJJ	.
16BLL]	16bLL]	.
16B-	16b-	.
16A	16a	.
16A-JJ	16a-JJ	.
=90	=90	=90
8G	8gL	.
*clefG2	*	*
16gLL	(16ggL	.
16f#JJ	16ff#JJ	.
&(8gL&)	8ggL)	.
16gL	(16ggL	.
16aJJ	16aaJJ	.
=91	=91	=91
&(8g&)	8gg)	.
*clefF4	*	*
8eL E	8gg^L g	.
8d# D#	8ff#^ a	.
8dnJ Dn	8ffnJ b	.
=92	=92	=92
*k[]	*k[]	*k[]
*^	*	*
16GLL	4C	8.eeL cc	mf
16AJ	.	.	.
8GJ	.	.	.
.	.	16eeJk	.
4r	8GL GG	16dd#LL cc	<
.	.	16ee	.
.	8cJ G E	16gg	.
.	.	[16cccJJ [ee	.
*v	*v	*	*
=93	=93	=93
8CL	16ccc]LL ee]	>
.	16bbJ	.
8eJ c G	8aaJ ee	.
8CL	16aaLK dd#	.
.	8.ggJ ee	.
8eJ c G	.	.
=94	=94	=94
*^	*	*
16GLL	4C	8.eeL cc	.
16AJ	.	.	.
8GJ	.	.	.
.	.	16eeJk cc	.
4r	8c#L C#	(16dd#LL a#	.
.	.	16ee	.
.	8eJ c# G	16gg a#	.
.	.	16eeJJ	.
*v	*v	*	*
=95	=95	=95
8dL D	8ffL b	.
8fJ B G	16ffL	.
.	16eeJJ	.
8GL GG	16ddLL)	.
.	16ddd	.
8fJ B G	(16dd	.
.	16dd#JJ)	.
=96	=96	=96
*^	*	*
16G^LL	4C	8.eeL cc	.
16AJ	.	.	.
8GJ	.	.	.
.	.	16eeJk	.
4r	8GGL	16dd#LL cc	.
.	.	16ee	.
.	8eJ c G	16gg	.
.	.	[16cccJJ [ee	.
*v	*v	*	*
=97	=97	=97
8CL CC	16ccc]LL ee]	.
.	16bbJ	.
8eJ c G	8aaJ ee	.
8GGL	16aaLK dd#	.
.	8.ggJ ee	.
8cJ G E	.	.
=98	=98	=98
8F#L FF#	(16cccLL aa dd#	.
.	16ff#	.
8f#J B A	16aa	.
.	[16bbJJ) [aa [dd#	<
8BBL BBB	16bb]LL aa] dd#]	.
.	16cccJ	.
8f#J d# A	8bbJ aa dd#	.
=99	=99	=99
8E EE	8eee bb gg ee	f
8e^L E	8gg^L g	.
8d#^ D#	8ff#^ a	.
8dn^J Dn	8ffn^J b	.
=100	=100	=100
*^	*	*
16GLL	4C	8.eeL cc	mf
16AJ	.	.	.
8GJ	.	.	.
.	.	16eeJk	.
4r	8GL GG	16dd#LL cc	.
.	.	16ee	.
.	8cJ G E	16gg	.
.	.	[16cccJJ [ee	.
*v	*v	*	*
=101	=101	=101
8CL	16ccc]LL ee]	.
.	16bbJ	.
8cJ G E	8aaJ ee	.
8CL	16aaLK dd#	.
.	8.ggJ ee	.
8cJ G E	.	.
=102	=102	=102
8BL BB	8dddL gg# ee	f
8EJ EE	16eeeL gg# ee	.
.	[16dddJJ gg# [ee	.
8F#L FF#	16ddd]LL gg# ee]	.
.	16eeeJ	.
8G#J GG#	8dddJ gg# ee	.
=103	=103	=103
8A AA	(16cccLL aa	.
.	16eee	.
8r	16ccc	.
.	16aaJJ	.
4r	16eeLL	.
.	16cc	.
.	16a	.
.	16eJJ)	.
=104	=104	=104
8DL DD	8fL	.
8dJ A F	16gL	.
.	[16aJJ	.
8FL FF	16aLL]	<
.	16bJ	.
8dJ A F	8ccJ	.
=105	=105	=105
8F#L FF#	4aa^ dd# a	.
8d#J A F#	.	.
8GL GG	4gg^ ee g	.
8eJ c G	.	.
=106	=106	=106
8G^L GG	16aaLK ff b	.
.	8gg^ ff b	.
8A^ AA	.	.
.	[16ggJk [ff [b	.
8B^ BB	16gg]LL ff] b]	.
.	16aaJ	.
8A^J GG	8ggJ	.
=107	=107	=107
8c G E C	16cccLL	ff
.	16bb	.
8r	16bb-	.
.	[16aaJJ	.
4r	16aaLL]	.
.	16aa-	.
.	16gg	.
.	16ff#JJ	.
=108	=108	=108
2r	16ffnLL	.
.	16ee	.
.	16ee-	.
.	[16ddJJ	.
.	16ddLL]	.
.	16eenJ	.
.	8ffJ	.
=109	=109	=109
8DL	8aa ff dd a	.
16EL	8r	.
[16FJJ	.	.
16FLL]	8r	.
16DJ	.	.
8GJ GG	8bb ff dd b	.
=110	=110	=110
8C CC	8ccc gg ee cc	.
8r	8r	.
4r	4r	.
==	==	==
*-	*-	*-
!!!ENC: Craig Stuart Sapp
!!!END: 2005/01/22
!!!EEV: 2018/06/01
